svg/blobs-icons/no-decorations/megaphone.svg

<svg xmlns="http://www.w3.org/2000/svg" xmlns:xlink="http://www.w3.org/1999/xlink" preserveAspectRatio="xMidYMid" width="218" height="212" viewBox="0 0 218 212"><defs><style>.cls-3{fill:#142a3b}.cls-4{fill:#020403;opacity:.35}.cls-5{fill:#ff3a2f}.cls-6{fill:#ededed}.cls-8{fill:#020403;opacity:.2}</style></defs><g id="group-167svg"><path d="M79.507 211.818c-15.097.0-27.383-12.284-27.383-27.39V133.899s54.765.0 54.765.0.0 50.529.0 50.529c0 15.106-12.285 27.39-27.382 27.39z" id="path-1" class="cls-3" fill-rule="evenodd"/><path d="M94.181 133.899s0 42.056.0 42.056c0 15.106-12.285 27.392-27.381 27.392C63.95 203.347 61.202 202.906 58.616 202.094 63.643 208.032 71.138 211.818 79.507 211.818c15.097.0 27.382-12.284 27.382-27.39V133.899s-12.708.0-12.708.0z" id="path-2" class="cls-4" fill-rule="evenodd"/><path d="M111.794 148.982s-57.945.0-57.945.0c-29.68.0-53.835-24.158-53.835-53.846.0-14.455 5.641-27.964 15.878-38.047C25.893 46.933 39.4 41.3 53.849 41.3h57.945s0 0 0 0" id="path-3" class="cls-5" fill-rule="evenodd"/><path d="M168.928 148.982s-67.989.0-67.989.0.0-107.682.0-107.682 67.989.0 67.989.0.0 107.682.0 107.682z" id="path-4" class="cls-6" fill-rule="evenodd"/><path d="M90.821 41.3s-10.268 66.478-10.268 66.478C79.151 116.861 71.331 123.565 62.14 123.565H26.076C18.638 123.565 11.613 121.629 5.312 118.271c7.79 18.128 24.376 30.71 43.589 30.71h52.038s0-107.681.0-107.681-10.118.0-10.118.0z" id="path-5" class="cls-4" fill-rule="evenodd"/><path d="M147.749 41.3S144.461 111.724 144.461 111.724C143.931 123.093 134.559 132.037 123.179 132.037h-22.24s0 16.944.0 16.944 67.989.0 67.989.0.0-107.681.0-107.681-21.179.0-21.179.0z" id="path-6" class="cls-8" fill-rule="evenodd"/><path d="M216.888 190.356s-63.042-45.036-63.042-45.036S153.847 41.3 153.847 41.3 216.888.005 216.888.005s0 190.351.0 190.351z" id="path-7" class="cls-6" fill-rule="evenodd"/><path d="M199.944 12.086s0 109.638.0 109.638c0 14.543-16.437 23.002-28.271 14.548l-17.826-12.735s0 21.783.0 21.783 63.041 45.036 63.041 45.036.0-190.351.0-190.351-16.944 12.081-16.944 12.081z" id="path-8" class="cls-8" fill-rule="evenodd"/></g></svg>

<svg xmlns="http://www.w3.org/2000/svg" xmlns:xlink="http://www.w3.org/1999/xlink" preserveAspectRatio="xMidYMid" width="218" height="212" viewBox="0 0 218 212">
  <defs>
    <style>

      .cls-3 {
        fill: #142a3b;
      }

      .cls-4 {
        fill: #020403;
        opacity: 0.35;
      }

      .cls-5 {
        fill: #ff3a2f;
      }

      .cls-6 {
        fill: #ededed;
      }

      .cls-8 {
        fill: #020403;
        opacity: 0.2;
      }
    </style>
  </defs>
  <g id="group-167svg">
    <path d="M79.507,211.818 C64.410,211.818 52.124,199.534 52.124,184.428 C52.124,184.428 52.124,133.899 52.124,133.899 C52.124,133.899 106.889,133.899 106.889,133.899 C106.889,133.899 106.889,184.428 106.889,184.428 C106.889,199.534 94.604,211.818 79.507,211.818 Z" id="path-1" class="cls-3" fill-rule="evenodd"/>
    <path d="M94.181,133.899 C94.181,133.899 94.181,175.955 94.181,175.955 C94.181,191.061 81.896,203.347 66.800,203.347 C63.950,203.347 61.202,202.906 58.616,202.094 C63.643,208.032 71.138,211.818 79.507,211.818 C94.604,211.818 106.889,199.534 106.889,184.428 C106.889,184.428 106.889,133.899 106.889,133.899 C106.889,133.899 94.181,133.899 94.181,133.899 Z" id="path-2" class="cls-4" fill-rule="evenodd"/>
    <path d="M111.794,148.982 C111.794,148.982 53.849,148.982 53.849,148.982 C24.169,148.982 0.014,124.824 0.014,95.136 C0.014,80.681 5.655,67.172 15.892,57.089 C25.893,46.933 39.400,41.300 53.849,41.300 C53.849,41.300 111.794,41.300 111.794,41.300 C111.794,41.300 111.794,41.300 111.794,41.300 " id="path-3" class="cls-5" fill-rule="evenodd"/>
    <path d="M168.928,148.982 C168.928,148.982 100.939,148.982 100.939,148.982 C100.939,148.982 100.939,41.300 100.939,41.300 C100.939,41.300 168.928,41.300 168.928,41.300 C168.928,41.300 168.928,148.982 168.928,148.982 Z" id="path-4" class="cls-6" fill-rule="evenodd"/>
    <path d="M90.821,41.300 C90.821,41.300 80.553,107.778 80.553,107.778 C79.151,116.861 71.331,123.565 62.140,123.565 C62.140,123.565 26.076,123.565 26.076,123.565 C18.638,123.565 11.613,121.629 5.312,118.271 C13.102,136.399 29.688,148.981 48.901,148.981 C48.901,148.981 100.939,148.981 100.939,148.981 C100.939,148.981 100.939,41.300 100.939,41.300 C100.939,41.300 90.821,41.300 90.821,41.300 Z" id="path-5" class="cls-4" fill-rule="evenodd"/>
    <path d="M147.749,41.300 C147.749,41.300 144.461,111.724 144.461,111.724 C143.931,123.093 134.559,132.037 123.179,132.037 C123.179,132.037 100.939,132.037 100.939,132.037 C100.939,132.037 100.939,148.981 100.939,148.981 C100.939,148.981 168.928,148.981 168.928,148.981 C168.928,148.981 168.928,41.300 168.928,41.300 C168.928,41.300 147.749,41.300 147.749,41.300 Z" id="path-6" class="cls-8" fill-rule="evenodd"/>
    <path d="M216.888,190.356 C216.888,190.356 153.846,145.320 153.846,145.320 C153.846,145.320 153.847,41.300 153.847,41.300 C153.847,41.300 216.888,0.005 216.888,0.005 C216.888,0.005 216.888,190.356 216.888,190.356 Z" id="path-7" class="cls-6" fill-rule="evenodd"/>
    <path d="M199.944,12.086 C199.944,12.086 199.944,121.724 199.944,121.724 C199.944,136.267 183.507,144.726 171.673,136.272 C171.673,136.272 153.847,123.537 153.847,123.537 C153.847,123.537 153.847,145.320 153.847,145.320 C153.847,145.320 216.888,190.356 216.888,190.356 C216.888,190.356 216.888,0.005 216.888,0.005 C216.888,0.005 199.944,12.086 199.944,12.086 Z" id="path-8" class="cls-8" fill-rule="evenodd"/>
  </g>
</svg>
